public/assets/images/services/icons/2.svg

<svg id="eumEg2fY14G1" xmlns="http://www.w3.org/2000/svg" xmlns:xlink="http://www.w3.org/1999/xlink" viewBox="0 0 58 64" shape-rendering="geometricPrecision" text-rendering="geometricPrecision" project-id="53b8ae0a1bba4eaba743bbc5484dcf84" export-id="172d139b8baf4bdc815b7f3d2be9283c" cached="true">
<style><![CDATA[
#eumEg2fY14G2 {animation: eumEg2fY14G2_s_do 3000ms linear infinite normal forwards}@keyframes eumEg2fY14G2_s_do { 0% {stroke-dashoffset: 302.34} 66.666667% {stroke-dashoffset: 0} 100% {stroke-dashoffset: 0}}
]]></style>
<path id="eumEg2fY14G2" d="M1.00363,35.1008h55.17597m-16.1195,0c-.8608,4.9501-5.9413,9.2819-11.0013,9.2997-5.1994.0178-11.0458-4.2595-11.9381-9.2997m7.7557,27.8991c-1.5558.0001-1.1956-.8964-1.1563-1.8005.0517-1.1878,0-2.3811.0202-3.5711.0068-.3737-.0944-.5505-.4753-.694-1.2518-.4715-2.489-.9876-3.7116-1.5303-.3337-.1479-.5236-.1523-.7843.1157-.8911.9153-1.8047,1.8083-2.7194,2.7014-.7854.7673-1.4484.7785-2.2238.0178-1.708-1.676-3.4093-3.3598-5.10269-5.0502-.75513-.7541-.74277-1.4314.02584-2.201c1.00234-1.0031,2.01595-1.9951,2.95865-2.9271-.5989-1.517-1.1641-2.9772-1.76416-4.4219-.05506-.1323-.33598-.2413-.51465-.2435-1.28439-.0211-2.56878-.0067-3.85316-.0122-1.12145-.0045-1.60465-.4771-1.61476-1.5793-.00674-.724-.00112-1.4491-.00112-2.2587-.52252,0-1.00571.0111-1.48778-.0022-.98773-.0267-1.46081-.4883-1.4653-1.4636-.010115-2.1186.00449-4.2373-.00674-6.3559-.003375-.6951.32137-1.141.9484-1.4035.58095-.2424,1.15066-.5205,1.74735-.7184.45173-.1502.5596-.4037.55398-.8486-.03933-2.7547.21688-5.475,1.0383-8.1252C6.88708,15.465,9.87275,11.2701,14.2406,8.04153c1.8046-1.33456,3.7722-2.38887,5.8915-3.14957.4383-.15792.6012-.3759.5652-.83298-.0404-.5216-.0179-1.04875-.0067-1.57256.0213-1.00204.4989-1.47692,1.5181-1.48137c2.2834-.008894,4.5667-.00333,6.8501-.00333c2.1204,0,4.2408-.002228,6.3601,0c1.1552.00222,1.6384.47265,1.6597,1.60258.0124.66506-.2101,1.48137.1023,1.95069.3079.46153,1.1641.55606,1.7675.83743C46.1997,8.76998,50.8439,14.2951,52.8317,21.9799c.5742,2.2198.7226,4.4975.6619,6.7852-.0112.4248.1068.6561.5259.8018.6124.2146,1.199.5005,1.8013.7485.6562.2702.9821.744.9798,1.4535-.0056,2.0786.0057,4.1561-.0045,6.2347-.0056,1.0398-.4899,1.5147-1.5293,1.538-.445.0101-.89.0012-1.4338.0012c0,.7095,0,1.3657,0,2.0218-.0023,1.3957-.4203,1.8161-1.8092,1.8161-1.3642,0-2.7283,0-3.9745,0-.6664,1.4881-1.3103,2.896-1.9137,4.3218-.0618.1468.0596.4493.1922.5861.8765.9008,1.7822,1.775,2.6721,2.6624.8361.833.8417,1.4603.0101,2.2866-1.6687,1.6582-3.3407,3.3141-5.0161,4.9646-.8114.7996-1.453.7996-2.2643.0055-.899-.8797-1.799-1.7583-2.6755-2.6591-.2675-.2747-.4664-.307-.8316-.1435-1.2214.5461-2.4631,1.0499-3.7115,1.5303-.3315.1279-.4765.2558-.4686.6273.0258,1.21.0101,2.4211.009,3.6311c0,1.121-.1888,1.398-1.2215,1.8028L30.7603,63l-5.8839-.0001Z" fill="none" stroke="#ed1c24" stroke-width="2" stroke-dashoffset="302.34" stroke-dasharray="302.34"/></svg>

<svg width="58" height="64" viewBox="0 0 58 64" fill="none" xmlns="http://www.w3.org/2000/svg">
<path d="M1.00363 35.1008H56.1796M40.0601 35.1008C39.1993 40.0509 34.1188 44.3827 29.0588 44.4005C23.8594 44.4183 18.013 40.141 17.1207 35.1008M24.8764 62.9999C23.3206 63 23.6808 62.1035 23.7201 61.1994C23.7718 60.0116 23.7201 58.8183 23.7403 57.6283C23.7471 57.2546 23.6459 57.0778 23.265 56.9343C22.0132 56.4628 20.776 55.9467 19.5534 55.404C19.2197 55.2561 19.0298 55.2517 18.7691 55.5197C17.878 56.435 16.9644 57.328 16.0497 58.2211C15.2643 58.9884 14.6013 58.9996 13.8259 58.2389C12.1179 56.5629 10.4166 54.8791 8.72321 53.1887C7.96808 52.4346 7.98044 51.7573 8.74905 50.9877C9.75139 49.9846 10.765 48.9926 11.7077 48.0606C11.1088 46.5436 10.5436 45.0834 9.94354 43.6387C9.88848 43.5064 9.60756 43.3974 9.42889 43.3952C8.1445 43.3741 6.86011 43.3885 5.57573 43.383C4.45428 43.3785 3.97108 42.9059 3.96097 41.8037C3.95423 41.0797 3.95985 40.3546 3.95985 39.545C3.43733 39.545 2.95414 39.5561 2.47207 39.5428C1.48434 39.5161 1.01126 39.0545 1.00677 38.0792C0.996655 35.9606 1.01126 33.8419 1.00003 31.7233C0.996655 31.0282 1.3214 30.5823 1.94843 30.3198C2.52938 30.0774 3.09909 29.7993 3.69578 29.6014C4.14751 29.4512 4.25538 29.1977 4.24976 28.7528C4.21043 25.9981 4.46664 23.2778 5.28806 20.6276C6.88708 15.465 9.87275 11.2701 14.2406 8.04153C16.0452 6.70697 18.0128 5.65266 20.1321 4.89196C20.5704 4.73404 20.7333 4.51606 20.6973 4.05898C20.6569 3.53738 20.6794 3.01023 20.6906 2.48642C20.7119 1.48438 21.1895 1.0095 22.2087 1.00505C24.4921 0.996156 26.7754 1.00172 29.0588 1.00172C31.1792 1.00172 33.2996 0.999492 35.4189 1.00172C36.5741 1.00394 37.0573 1.47437 37.0786 2.6043C37.091 3.26936 36.8685 4.08567 37.1809 4.55499C37.4888 5.01652 38.345 5.11105 38.9484 5.39242C46.1997 8.76998 50.8439 14.2951 52.8317 21.9799C53.4059 24.1997 53.5543 26.4774 53.4936 28.7651C53.4824 29.1899 53.6004 29.4212 54.0195 29.5669C54.6319 29.7815 55.2185 30.0674 55.8208 30.3154C56.477 30.5856 56.8029 31.0594 56.8006 31.7689C56.795 33.8475 56.8063 35.925 56.7961 38.0036C56.7905 39.0434 56.3062 39.5183 55.2668 39.5416C54.8218 39.5517 54.3768 39.5428 53.833 39.5428C53.833 40.2523 53.833 40.9085 53.833 41.5646C53.8307 42.9603 53.4127 43.3807 52.0238 43.3807C50.6596 43.3807 49.2955 43.3807 48.0493 43.3807C47.3829 44.8688 46.739 46.2767 46.1356 47.7025C46.0738 47.8493 46.1952 48.1518 46.3278 48.2886C47.2043 49.1894 48.11 50.0636 48.9999 50.951C49.836 51.784 49.8416 52.4113 49.01 53.2376C47.3413 54.8958 45.6693 56.5517 43.9939 58.2022C43.1825 59.0018 42.5409 59.0018 41.7296 58.2077C40.8306 57.328 39.9306 56.4494 39.0541 55.5486C38.7866 55.2739 38.5877 55.2416 38.2225 55.4051C37.0011 55.9512 35.7594 56.455 34.511 56.9354C34.1795 57.0633 34.0345 57.1912 34.0424 57.5627C34.0682 58.7727 34.0525 59.9838 34.0514 61.1938C34.0514 62.3148 33.8626 62.5918 32.8299 62.9966L30.7603 63L24.8764 62.9999Z" stroke="#ED1C24" stroke-width="2"/>
</svg>
